X:65
T:Estampie Reale
C:Anonyme (
<end>
<start>
XIIe si?cle)
S:Cahier n?2 de l'anthologie de la musique proven?ale (F?d?ration Folklorique M?diterran?enne)
Z:Transcrit et/ou corrig? par Michel BELLON - 2005-04-24
Z:Pour toute observation mailto:galouvielle@free.fr
R:Estampie
M:3/4
L:1/4
Q:3/4=72
K:Bb
[P:1] ((G2d) | d2)c | (B/A/B)c | A2z || [P:R] ((F2G) | B2)c | ((d/c/d/B/)c) | d2d | ((d/c/d/B/)c) |
d3 | dzz | F2G | B2c | ((d/c/d/B/)c) | d2d | (d/c/d/c/) (B/A/) | B2B | (cB/A/)B | B3 ||
[P:2] fg(f/e/) | ((d/c/)d)e | (f/e/d/c/)BA | B3 || [P:3] [K:F] (ga)g | (f/e/)fe | (cde) | f2f | (c3 | B2)z ||
[P:4] (b(a/g/)(f/e/)) | f2g | (f_ed | c2)z || [P:5] (GAG | F2)B | (c/d/_e/f/ e| d3) | (ga/g/f/=e/ | d2)z |]
<end>
<start>
